X: 306
T: Reel de Sherbrooke
M:4/4
R:reel
L:1/8
Z:Alf Warnock - alf0@rogers.com
K:G
%%text play twice then coda
|: "G"[B2D2G,2g2]fe dcBA|GBDG B2AG|"D7"FADF AcBA|"G"GBDG B2z2|
"G"[B2D2G,2g2]fe dcBA|GBDG B2AG|"D7"FGAB cdef|"G"gagf g2z2:|
"D"AAFA d3/2d/2|ffdf a3/2b/2|"A7"a2g2 e2^c2|"D"b2a2 f2d2|
AAFA d3/2d/2|ffdf a3/2b/2|"A7"a2g2 e2^c2|"D"d^cde d2z2:|
!coda![G,2D2B2g2]fe dcBA|GBDG B2AG|FADF AcBA|GFED CB,A,G,|
[B2D2G,2g2]fe dcBA|GBDG B2AG|FGAB cdef|.g2z2[G,2D2B2g2]|
